X: 0215
T: Hooper's Jig - 8x32J
P: Peter's Peerie Boat
C: Tom Anderson
B: Miss Milligan's Miscellany v.2 #0215
B: Originally Ours v.1 p.181 #MMM-0215
Z: 2019 John Chambers <jc:trillian.mit.edu>
M: 6/8
L: 1/8
R: jig
K: D
A |:\
"D"d2d D2D | "E/A7"EFG "C#/A7"ABc | "D"d2d "E7"Bed | "A"cAA "G/A7"ABc |\
"D"d2d D2D | "E/A7"EFG "C#/A7"ABc | "D"d2A "E/A7"GFE |1 "D"FDD DBc :|2 "D"FDD D2A ||
"D"d2d f2d | "E/A"c2c "C#/A"e2c | "G"B2B dcB | "D"A3- A2F |\
"E/A7"GFG "C#/A7"BAG | "D"F2A d3 | "Em"E2G B3 | "A"C2E "C#/A"A2c |
"D"dcd fed | "C#/A"cBc "E/A"edc | "G"B^AB dcB | "F#/D"A3- "D"A2F |\
"E/A7"GFG "C#/A7"BAG | "D"F2A "E/A7"a2g | "D"fed "E/A7"Adc | "D"d3 D3 |]
